!!!!SEGMENT: pl-kozmzk--mzk-m-346--023_walczynski-franciszek--cantantibus-organis-larghetto.krn
!!!cenid: 18xx:2818
!!!COM: Walczyński, Franciszek
!!!COM-rismID: pe30021989
!!!CDT: ~1852-1937
!!!CNT: Polish
!!!GTL: Cantantibus organis op. 10
!!!OTL: 23. Larghetto
!!!PDT: 1898
!!!AGN: Secular
!!!SMS-siglum: PL-KOZmzk
!!!SMS-shelfmark: mzk/m/346
!!!SMS-shelfwork: 023 G
!!!SMS-variant:
!!!SMS-altvar:
!!!NIFC-rismSourceID: 1001099615
!!!NIFC-rismChildID: 1001109272
!!!NIFC-islandoraID: pl-kozmzk:7453
!!!URL-pdf-islandora: https://repozytorium.nifc.pl/islandora/object/pl-kozmzk%3A7453/datastream/PDF/view
!!!URL-scan: https://polish.musicsources.pl/pl/lokalizacje/galeria/druki-muzyczne/7581 @EN{Scan on Polish Music Sources Website} @PL{Skany w portalu Dziedzictwo Muzyki Polskiej w otwartym dostępie}
!!!ONB-nifc:
!!!AIN: 1 organ
!!!key:
**kern	**kern	**dynam
*part1	*part1	*part1
*staff2	*staff1	*
*Iorgan	*Iorgan	*
*I"Organo	*I"Organo	*
*clefF4	*clefG2	*
*k[f#c#g#]	*k[f#c#g#]	*
*A:	*A:	*
*M4/4	*M4/4	*
*met(c)	*met(c)	*
=1	=1	=1
*^	*^	*
!	!	!LO:TX:a:B:t=Larghetto.	!	!
(4A/	1r	1rff	2r	p
4G#/	.	.	.	.
4F#/	.	.	(4a\	p
4E/	.	.	4g#\	.
=2	=2	=2	=2	=2
!	!	!	!	!LO:DY:a
4D/	1r	(4dd/	8f#\L	fp
.	.	.	8g#X\J	.
4E/	.	4cc#/	4a\	.
4E#X/	.	4b/	4g#\	.
4F#/)	.	4a/	[4f#\	.
=3	=3	=3	=3	=3
!	!	!	!	!LO:HP:a
(4d/	(4D\	4b/	2f#\]	<
4cn/	4D#X\	4a/	.	.
2B/)	4E\	2g#/)	2e\)	[
.	4Dn\)	.	.	.
=4	=4	=4	=4	=4
4A/	(4C#\	(4ee/	1e	f
4G#/	4BB\	4dd/	.	.
2A/	4AA\	2cc#/	.	.
.	4Gn\)	.	.	.
=5	=5	=5	=5	=5
(4A/	2F#\	4dd/	(4d\	.
4A#X/	.	4cc#/	4e\	.
2B/	4D\	4b/	2f#\	.
.	4D#X\	4a/	.	.
=6	=6	=6	=6	=6
4An/	1E	4cc#/	8e\L	.
.	.	.	8f#\J	.
8e/L	.	4b/	4g#\	.
8d/J	.	.	.	.
8c#/L	.	4a/	4.e\	.
8cn/J	.	.	.	.
4B/)	.	4g#/)	.	.
.	.	.	8d\)	.
=7	=7	=7	=7	=7
!LO:TX:b:i:t=Ped	!	!	!	!
(4A/	[1AA	[1a	(2c#\	.
4G#/	.	.	.	.
!LO:TX:b:i:t=rit.	!	!	!	!
4F#/	.	.	4d\	.
4E/	.	.	4c#\	.
=8	=8	=8	=8	=8
4D/	1AA;]	1a;]	4B\	.
8E/L	.	.	8c#\L	.
8F#/J	.	.	8d\J	.
2E;/)	.	.	2c#;\)	.
*v	*v	*	*	*
*	*v	*v	*
==	==	==
*-	*-	*-
!!!system-decoration: {(s1,s2)}
!!!ENC: Kamil Watkowski
!!!END: 2021-08-09
!!!YEC: Copyright 2022 Narodowy Instytut Fryderyka Chopina (https://polishscores.org)
!!!YEM: License CC-BY-4.0 (https://creativecommons.org/licenses/by/4.0)
